client/public/assets/icons/utility/info_alt.svg

<?xml version="1.0"?><svg xmlns="http://www.w3.org/2000/svg" width="52" height="52" viewBox="0 0 52 52"><path fill="#fff" d="m26 2c-13.3 0-24 10.7-24 24s10.7 24 24 24 24-10.7 24-24-10.7-24-24-24z m0 42c-10 0-18-8-18-18s8-18 18-18 18 8 18 18-8 18-18 18z m0-29.9c1.7 0 3 1.3 3 3s-1.3 3-3 3-3-1.3-3-3 1.3-3 3-3z m5 21c0 0.5-0.4 0.9-1 0.9h-8c-0.5 0-1-0.3-1-0.9v-2c0-0.5 0.4-1.1 1-1.1 0.5 0 1-0.3 1-0.9v-4c0-0.5-0.4-1.1-1-1.1-0.5 0-1-0.3-1-0.9v-2c0-0.5 0.4-1.1 1-1.1h6c0.5 0 1 0.5 1 1.1v8c0 0.5 0.4 0.9 1 0.9 0.5 0 1 0.5 1 1.1v2z"></path></svg>

<?xml version="1.0" encoding="utf-8"?>
<!-- Generator: Adobe Illustrator 20.0.0, SVG Export Plug-In . SVG Version: 6.00 Build 0)  -->
<svg version="1.1" id="Layer_1" xmlns="http://www.w3.org/2000/svg" xmlns:xlink="http://www.w3.org/1999/xlink" x="0px" y="0px"
	 width="52px" height="52px" viewBox="0 0 52 52" enable-background="new 0 0 52 52" xml:space="preserve">
<path fill="#FFFFFF" d="M26,2C12.7,2,2,12.7,2,26s10.7,24,24,24s24-10.7,24-24S39.3,2,26,2z M26,44C16,44,8,36,8,26S16,8,26,8
	s18,8,18,18S36,44,26,44z"/>
<path fill="#FFFFFF" d="M26,14.1c1.7,0,3,1.3,3,3s-1.3,3-3,3s-3-1.3-3-3S24.3,14.1,26,14.1z"/>
<path fill="#FFFFFF" d="M31,35.1c0,0.5-0.4,0.9-1,0.9h-8c-0.5,0-1-0.3-1-0.9v-2c0-0.5,0.4-1.1,1-1.1c0.5,0,1-0.3,1-0.9v-4
	c0-0.5-0.4-1.1-1-1.1c-0.5,0-1-0.3-1-0.9v-2c0-0.5,0.4-1.1,1-1.1h6c0.5,0,1,0.5,1,1.1v8c0,0.5,0.4,0.9,1,0.9c0.5,0,1,0.5,1,1.1V35.1
	z"/>
</svg>
